X: 32312
T: Pigeon On The Gate, The
R: reel
M: 4/4
K: Edorian
|:BE~E2 BEdE|BE~E2 BAFE|D2FE DEFE|DEFA BAFA|
BE~E2 BEdE|BE~E2 BAFD|D2FA dfec|1 dBAF EFGA:|2 dBAF E3A||
B2ee efed|Bdef gfed|Bddc d3B|AddB ADFA|
B2e^d efed|Bdef g2fg|gffe faec|dBAF EFGA|
B2e^d efed|Bdef gfed|Bddc d3B|AddB ADFA|
B2e^d efed|Bdef g2fg|gffe faec|dBAF E2dc||

